azure-patterns/svg-mariadb.svg

<svg xmlns="http://www.w3.org/2000/svg" viewBox="0 0 31 41">
                                
                            
  <path d="M14.7599,40.1797 L16.0719,39.6037 L16.1889,5.4907 L-0.0001,5.4907 L-0.0001,34.6967 C-0.0001,37.6797 6.5739,40.1027 14.7599,40.1797" fill="#193563"></path>
  <path d="M30.3185,5.4903 L30.3185,5.3973 L14.7595,5.3973 L14.7595,5.4903 L14.7595,40.1793 C14.8255,40.1803 14.8895,40.1813 14.9545,40.1833 L14.9545,40.1863 L15.1195,40.1863 L15.1595,40.1863 L15.1625,40.1863 C23.5345,40.1863 30.3225,37.7283 30.3225,34.6953 L30.3225,5.4903 L30.3185,5.4903 Z" fill="#2E4B79"></path>
  <path d="M30.3185,5.4903 C30.3185,8.5223 23.5325,10.9803 15.1585,10.9803 C6.7855,10.9803 0.0005,8.5223 0.0005,5.4903 C0.0005,2.4583 6.7875,0.0003 15.1585,0.0003 C23.5305,0.0003 30.3185,2.4573 30.3185,5.4903" fill="#FFFFFF"></path>
  <path d="M27.2189,5.1739 C27.2189,7.1769 21.8199,8.7959 15.1579,8.7959 C8.4979,8.7959 3.0979,7.1749 3.0979,5.1739 C3.0979,3.1719 8.4989,1.5509 15.1579,1.5509 C21.8179,1.5509 27.2189,3.1719 27.2189,5.1739" fill="#7FB900"></path>
  <path d="M24.6916,7.3867 C26.2706,6.7747 27.2196,6.0077 27.2196,5.1747 C27.2196,3.1717 21.8206,1.5507 15.1586,1.5507 C8.4976,1.5507 3.0986,3.1727 3.0986,5.1747 C3.0986,6.0077 4.0466,6.7747 5.6266,7.3867 C11.8436,5.5087 18.4776,5.5087 24.6956,7.3867" fill="#B7D332"></path>
  <path d="M22.4806,27.3115 C22.4806,27.3115 22.6276,27.8515 22.8896,28.4515 C23.1516,29.0515 23.4026,29.5585 23.3866,29.5695 C23.3706,29.5815 22.6006,29.6195 22.2136,29.4885 C21.8266,29.3565 21.1446,29.0625 21.2806,28.7185 C21.4176,28.3745 22.2846,27.4315 22.4806,27.3115" fill="#FFFFFF"></path>
  <path d="M27.4836,15.7886 C27.4836,15.8056 27.6086,16.5146 27.5926,16.5256 C27.5766,16.5366 27.3846,16.7656 27.3846,16.7656 L27.0956,16.9346 L26.3706,15.9636 L26.3426,15.6086 L26.6866,15.5376 L27.4836,15.7886 Z" fill="#193563"></path>
  <path d="M27.3849,16.7657 C27.3849,16.7657 27.2709,17.2297 26.6489,17.8137 C26.0269,18.3977 25.3829,18.5497 25.0499,19.0897 C24.7179,19.6297 24.5649,19.8487 24.4289,20.4647 C24.2919,21.0807 24.1229,22.3797 23.7839,23.4497 C23.4469,24.5177 22.9609,25.7727 22.4379,26.7657 C21.9129,27.7587 21.5159,28.0417 21.4109,28.1077 C21.3079,28.1727 21.1499,28.1957 21.1499,28.1957 C21.1499,28.1957 20.9639,28.5777 20.8769,28.6197 C20.7899,28.6637 20.6639,28.5547 20.5989,28.4787 C20.5329,28.4027 20.3309,28.1957 20.3309,28.1957 C20.3309,28.1957 19.8839,28.9487 19.5679,29.5037 C19.2509,30.0607 18.6839,30.6767 17.9039,31.1897 C17.1239,31.7037 16.2069,31.8997 15.9669,31.9207 C15.7279,31.9427 15.5959,31.9267 15.5959,31.9267 C15.5959,31.9267 16.2999,30.7647 16.7369,29.8267 C17.1729,28.8877 17.4409,28.1787 17.4999,27.7967 C17.5609,27.4147 17.5439,27.1367 17.5439,27.1367 C17.5439,27.1367 17.1729,27.8567 17.0799,28.1407 C16.9879,28.4237 16.9709,28.5987 16.9109,28.7237 C16.8509,28.8497 16.6379,29.1117 16.2449,29.2697 C15.8529,29.4277 15.5739,29.3687 15.3619,29.3457 C15.1489,29.3247 13.1689,29.0017 11.9959,28.9637 C10.8229,28.9257 10.8769,28.9047 10.4469,28.9487 C10.0159,28.9917 9.5689,29.0297 8.9739,29.2697 C8.3789,29.5097 7.8939,29.8917 7.5119,30.1317 C7.1299,30.3717 6.5019,30.8027 6.1199,31.0207 C5.7389,31.2397 5.3399,31.3647 4.8879,31.3867 C4.4349,31.4087 3.7809,31.3747 3.3989,31.3747 C3.0169,31.3747 2.7489,31.2777 2.7159,31.2557 C2.6839,31.2337 2.6669,31.2017 2.6669,31.2017 C2.6669,31.2017 2.9939,30.8197 3.1749,30.6337 C3.3549,30.4487 3.5449,30.2187 3.5449,30.2187 C3.5449,30.2187 2.9779,30.3007 2.7109,30.2137 C2.4439,30.1257 2.2519,29.9467 2.2139,29.8697 C2.1759,29.7927 2.1439,29.6677 2.1439,29.6677 C2.1439,29.6677 3.2179,29.2477 3.5179,29.1497 C3.8189,29.0517 4.9639,28.9207 5.4109,28.9257 C5.8589,28.9317 6.2679,29.0357 6.9109,28.4347 C7.5549,27.8347 7.3969,27.8287 7.7299,27.4047 C8.0629,26.9787 8.9239,25.9957 9.8959,25.3587 C10.8659,24.7197 11.6849,24.4527 12.6449,24.2787 C13.6049,24.1037 14.6799,23.8307 15.4599,23.5527 C16.2399,23.2747 17.4999,22.7557 18.4599,21.8397 C19.4199,20.9227 20.0269,19.7987 20.2769,19.4227 C20.5279,19.0457 21.1769,18.0707 21.4719,17.6657 C21.7669,17.2627 22.3179,16.6407 22.9719,16.2637 C23.6259,15.8877 24.2589,15.7507 24.9039,15.7567 C25.5469,15.7627 26.4199,15.5607 26.5399,15.4897 C26.6589,15.4187 26.9159,15.1727 26.9709,15.1237 C27.0259,15.0757 27.3359,15.0147 27.5219,15.1187 C27.7069,15.2217 27.7389,15.5227 27.7239,15.8437 C27.7069,16.1657 27.5929,16.5267 27.5929,16.5267 C27.5929,16.5267 27.1339,16.3957 26.8949,16.1877 C26.7099,16.0287 26.5989,15.9107 26.5669,15.8387 C26.5239,15.7407 26.4799,15.6537 26.4629,15.6367 C26.4479,15.6197 26.4139,15.7507 26.4199,15.8167 C26.4249,15.8817 26.5069,16.0297 26.7469,16.2477 C26.9879,16.4657 27.3419,16.7607 27.3849,16.7657" fill="#FFFFFF"></path>
  <path d="M24.6574,16.6407 C24.6404,16.6407 24.1614,16.5587 23.8234,16.8587 C23.4534,17.1877 23.4254,17.3667 23.4254,17.3667 C23.4254,17.3667 23.8454,17.8127 24.4284,17.4527 C24.8534,17.1917 24.6574,16.6407 24.6574,16.6407" fill="#193563"></path>
  <path d="M25.4474,17.7783 C25.5524,17.2053 25.9734,16.7553 26.1924,16.4563 C26.2904,16.3363 26.3254,16.3983 26.2674,16.4883 C26.1184,16.7003 25.6304,17.1893 25.5274,17.7773 C25.5094,17.8783 25.4224,17.9333 25.4474,17.7783" fill="#193563"></path>
  <path d="M25.8693,17.8296 C25.8593,17.9326 25.7763,17.9946 25.7893,17.8376 C25.8473,17.2576 26.0993,16.8946 26.2923,16.5796 C26.3803,16.4506 26.4213,16.5116 26.3703,16.6046 C26.2393,16.8286 25.9223,17.2356 25.8693,17.8296" fill="#193563"></path>
  <path d="M26.4836,16.6929 C26.3716,16.9269 26.1576,17.2289 26.1576,17.8259 C26.1566,17.9279 26.0806,17.9989 26.0786,17.8399 C26.0846,17.2569 26.2386,17.0049 26.4026,16.6739 C26.4786,16.5389 26.5246,16.5949 26.4836,16.6929" fill="#193563"></path>
</svg>

<svg xmlns="http://www.w3.org/2000/svg" viewBox="0 0 31 41"><path d="M14.76 40.18l1.312-.576.117-34.113H-.001v29.206c0 2.983 6.575 5.406 14.76 5.483" fill="#193563"/><path d="M30.319 5.49v-.093h-15.56V40.18c.066 0 .13.001.195.003v.003H15.162c8.373 0 15.16-2.458 15.16-5.49V5.49h-.003z" fill="#2E4B79"/><path d="M30.319 5.49c0 3.032-6.787 5.49-15.16 5.49C6.784 10.98 0 8.522 0 5.49S6.788 0 15.16 0c8.371 0 15.16 2.457 15.16 5.49" fill="#FFF"/><path d="M27.219 5.174c0 2.003-5.4 3.622-12.061 3.622-6.66 0-12.06-1.621-12.06-3.622 0-2.002 5.4-3.623 12.06-3.623s12.06 1.62 12.06 3.623" fill="#7FB900"/><path d="M24.692 7.387c1.579-.612 2.528-1.38 2.528-2.212 0-2.003-5.4-3.624-12.061-3.624S3.099 3.173 3.099 5.175c0 .833.948 1.6 2.528 2.212a32.975 32.975 0 0 1 19.069 0" fill="#B7D332"/><path d="M22.48 27.311s.148.54.41 1.14c.262.6.513 1.107.497 1.119-.016.011-.786.05-1.173-.082-.387-.131-1.07-.425-.933-.77.137-.343 1.004-1.287 1.2-1.407" fill="#FFF"/><path d="M27.484 15.789c0 .017.125.726.109.737-.016.01-.208.24-.208.24l-.29.169-.724-.971-.028-.355.344-.071.797.25z" fill="#193563"/><path d="M27.385 16.766s-.114.464-.736 1.048c-.622.584-1.266.736-1.6 1.276-.331.54-.484.759-.62 1.375-.137.616-.306 1.915-.645 2.985-.337 1.068-.823 2.323-1.346 3.316-.525.993-.922 1.276-1.027 1.342-.103.065-.261.088-.261.088s-.186.382-.273.424c-.087.044-.213-.065-.278-.141a11.242 11.242 0 0 0-.268-.283s-.447.753-.763 1.308c-.317.557-.884 1.173-1.664 1.686-.78.514-1.697.71-1.937.73-.24.023-.371.007-.371.007s.704-1.162 1.14-2.1c.437-.94.705-1.648.764-2.03.06-.382.044-.66.044-.66s-.371.72-.464 1.004c-.092.283-.11.458-.17.583-.06.126-.272.388-.665.546-.392.158-.671.099-.883.076-.213-.021-2.193-.344-3.366-.382-1.173-.038-1.12-.06-1.55-.015-.43.043-.877.08-1.472.32s-1.08.623-1.462.863c-.382.24-1.01.67-1.392.889-.381.219-.78.344-1.232.366-.453.022-1.107-.012-1.49-.012-.381 0-.65-.097-.682-.12-.032-.021-.05-.053-.05-.053s.328-.382.509-.568c.18-.185.37-.415.37-.415s-.567.082-.834-.005c-.267-.088-.46-.267-.497-.344-.038-.077-.07-.202-.07-.202s1.074-.42 1.374-.518c.3-.098 1.446-.23 1.893-.224.448.006.857.11 1.5-.491.644-.6.486-.606.819-1.03.333-.426 1.194-1.41 2.166-2.046.97-.64 1.789-.906 2.749-1.08.96-.175 2.035-.448 2.815-.726.78-.278 2.04-.797 3-1.713.96-.917 1.567-2.041 1.817-2.417.25-.377.9-1.352 1.195-1.757.295-.403.846-1.025 1.5-1.402a3.685 3.685 0 0 1 1.932-.507c.643.006 1.516-.196 1.636-.267.119-.071.376-.317.43-.366.056-.048.366-.11.552-.005.185.103.217.404.202.725-.017.322-.131.683-.131.683s-.46-.131-.698-.34c-.185-.158-.296-.276-.328-.348a1.14 1.14 0 0 0-.104-.202c-.015-.017-.05.114-.043.18.005.065.087.213.327.43.24.219.595.514.638.519" fill="#FFF"/><path d="M24.657 16.64c-.017 0-.496-.081-.834.219-.37.329-.398.508-.398.508s.42.446 1.003.086c.425-.261.23-.812.23-.812M25.447 17.778c.105-.573.526-1.023.745-1.322.098-.12.133-.058.075.032-.149.212-.637.701-.74 1.29-.018.1-.105.155-.08 0M25.87 17.83c-.01.103-.094.165-.08.008.057-.58.31-.943.502-1.258.088-.13.13-.068.078.025-.13.224-.448.63-.5 1.225" fill="#193563"/><path d="M26.484 16.693c-.112.234-.326.536-.326 1.133-.001.102-.077.173-.08.014.007-.583.16-.835.325-1.166.076-.135.122-.08.08.019" fill="#193563"/></svg>
